Desktop/project_createx/public/images/About/mute.svg

<svg width="800px" height="800px" viewBox="0 0 24 24" fill="none" xmlns="http://www.w3.org/2000/svg">
<g id="SVGRepo_bgCarrier" stroke-width="0"/>
<g id="SVGRepo_tracerCarrier" stroke-linecap="round" stroke-linejoin="round"/>
<g id="SVGRepo_iconCarrier"> <path fill-rule="evenodd" clip-rule="evenodd" d="M7.54721 7.272L5.51262 5.23741C5.1221 4.84689 5.1221 4.21372 5.51262 3.8232C5.90314 3.43267 6.53631 3.43267 6.92683 3.8232L21.9268 18.8232C22.3174 19.2137 22.3174 19.8469 21.9268 20.2374C21.5363 20.6279 20.9031 20.6279 20.5126 20.2374L18.4203 18.1451C18.3662 18.4135 18.3122 18.6589 18.2601 18.8803C17.9494 20.2016 16.7594 21 15.5063 21C14.755 21 14.0311 20.7184 13.4773 20.2107L10.5481 17.5257C10.1793 17.1876 9.69707 17 9.19669 17H9C6.79086 17 5 15.2091 5 13V11C5 9.30335 6.05633 7.85341 7.54721 7.272ZM16.6905 16.4153C16.5716 17.2295 16.4353 17.9034 16.3132 18.4224C16.2384 18.7406 15.9376 19 15.5063 19C15.2554 19 15.0137 18.906 14.8287 18.7364L11.8996 16.0514C11.1619 15.3751 10.1975 15 9.19669 15H9C7.89543 15 7 14.1046 7 13L7 11C7 9.89543 7.89543 9 9 9H9.19669C9.22263 9 9.24856 8.99975 9.27445 8.99924L16.6905 16.4153Z" fill="#000000"/> <path d="M16.3132 5.57761C16.6057 6.821 16.9801 8.95363 16.9992 11.7744L18.9569 13.7321C18.9844 13.184 19 12.6061 19 12C19 8.89192 18.5904 6.52403 18.2601 5.11974C17.9494 3.79838 16.7594 3 15.5063 3C14.755 3 14.0311 3.28161 13.4773 3.78926L11.1487 5.92383L12.5642 7.33938L14.8287 5.26357C15.0137 5.09404 15.2554 5 15.5063 5C15.9376 5 16.2384 5.25937 16.3132 5.57761Z" fill="#000000"/> </g>
</svg>

<svg xmlns="http://www.w3.org/2000/svg" width="800" height="800" fill="none" viewBox="0 0 24 24"><g fill="#000"><path fill-rule="evenodd" d="M7.547 7.272 5.513 5.237a1 1 0 0 1 1.414-1.414l15 15a1 1 0 1 1-1.414 1.414l-2.093-2.092a23 23 0 0 1-.16.735c-.31 1.322-1.5 2.12-2.754 2.12a3 3 0 0 1-2.029-.79l-2.929-2.684A2 2 0 0 0 9.197 17H9a4 4 0 0 1-4-4v-2a4 4 0 0 1 2.547-3.728m9.144 9.143a24 24 0 0 1-.378 2.007c-.075.319-.375.578-.807.578-.25 0-.492-.094-.677-.264l-2.93-2.685A4 4 0 0 0 9.198 15H9a2 2 0 0 1-2-2v-2a2 2 0 0 1 2-2h.274z" clip-rule="evenodd"/><path d="M16.313 5.578c.293 1.243.667 3.376.686 6.196l1.958 1.958Q18.999 12.91 19 12c0-3.108-.41-5.476-.74-6.88C17.95 3.798 16.76 3 15.506 3c-.751 0-1.475.282-2.029.79L11.15 5.923l1.415 1.415 2.265-2.075c.185-.17.426-.264.677-.264.432 0 .732.26.807.578"/></g></svg>
